X: 20225
T: Joe Cant's
R: reel
M: 4/4
K: Gmajor
AB (3cBA e2 dB|~G BG dGBG|AB(3cBA e2 dB|cABG EAA2:|
~a3g e2 ed|cdef g2 fe|~a3g e2ed|cABG EAA2|
a2 ag e2 ed|cdef g2 fe|agfe gfed|edef ~g3||

